X:45
T:Farewell to Whiskey
M:4/4
L:1/8
K:G
Q:1/4=100
"G" D2 G2 B2 AB | "Am" A2 E2 E4 | "G" D2 G2 B2 AG | "Em" d2 B2 (B3 d) |
"C" efge "G" d2 B2 | "Am" cBAG "D" A2 B2 | "G" D2 G2 "D" BAGA |1 "G" B2 G2 G3 E :|2 "G" B2 G2 G2 (Bc) ||
|: "G" d2 B2 g2 B2 | "Am" cBAG "D" A2 (Bc) | "G" d2 B2 g2 d2 | "C" e2 f2 "G" g2 d2 | "C" efge "G" d2 B2 |
"Am" cBAG "D" A2 B2 | "G" D2 G2 "D" BAGA |1 "G" B2 G2 G2 (Bc) :|2 "G" B2 G2 G4 |]
N:Conor Hogate

